storage/app/icons/phosphoricons/regular/headlights.svg

<svg xmlns="http://www.w3.org/2000/svg" fill="currentColor" viewBox="0 0 256 256"><path d="M160 80a8 8 0 0 1 8-8h72a8 8 0 0 1 0 16h-72a8 8 0 0 1-8-8m80 88h-72a8 8 0 0 0 0 16h72a8 8 0 0 0 0-16m0-64h-72a8 8 0 0 0 0 16h72a8 8 0 0 0 0-16m0 32h-72a8 8 0 0 0 0 16h72a8 8 0 0 0 0-16m-96-72v128a16 16 0 0 1-16 16H88a80 80 0 0 1-80-80.61C8.33 83.62 44.62 48 88.9 48H128a16 16 0 0 1 16 16m-16 0H88.9C53.38 64 24.26 92.49 24 127.51A64 64 0 0 0 88 192h40Z"/></svg>

<svg xmlns="http://www.w3.org/2000/svg" viewBox="0 0 256 256" fill="currentColor"><path d="M160,80a8,8,0,0,1,8-8h72a8,8,0,0,1,0,16H168A8,8,0,0,1,160,80Zm80,88H168a8,8,0,0,0,0,16h72a8,8,0,0,0,0-16Zm0-64H168a8,8,0,0,0,0,16h72a8,8,0,0,0,0-16Zm0,32H168a8,8,0,0,0,0,16h72a8,8,0,0,0,0-16ZM144,64V192a16,16,0,0,1-16,16H88A80,80,0,0,1,8,127.39C8.33,83.62,44.62,48,88.9,48H128A16,16,0,0,1,144,64Zm-16,0H88.9C53.38,64,24.26,92.49,24,127.51A64,64,0,0,0,88,192h40Z"/></svg>
